packages/icons/svg/Outline/image.svg

<svg fill="none" height="24" viewBox="0 0 24 24" width="24" xmlns="http://www.w3.org/2000/svg"><path clip-rule="evenodd" d="m8.00002 9.99993c.828 0 1.5-.672 1.5-1.5s-.672-1.5-1.5-1.5-1.5.672-1.5 1.5.672 1.5 1.5 1.5zm9.99998 9.00017h-11.439l7.005-5.845c.246-.209.692-.208.933-.001l4.501 3.84v1.006c0 .552-.448 1-1 1zm-11.99998-14.00003h11.99998c.552 0 1 .448 1 1v8.36403l-3.203-2.732c-.99-.842-2.539-.842-3.52-.006l-7.27698 6.072v-11.69803c0-.552.448-1 1-1zm11.99998-2.00007h-12c-1.654 0-3 1.346-3 3v12c0 1.654 1.346 3 3 3h12c1.654 0 3-1.346 3-3v-12c0-1.654-1.346-3-3-3z" fill="#6b7280" fill-rule="evenodd"/></svg>

<svg width="24" height="24" viewBox="0 0 24 24" fill="none" xmlns="http://www.w3.org/2000/svg">
<g id="Icon/Outline/image">
<path id="Mask" fill-rule="evenodd" clip-rule="evenodd" d="M8 10C8.828 10 9.5 9.328 9.5 8.5C9.5 7.672 8.828 7 8 7C7.172 7 6.5 7.672 6.5 8.5C6.5 9.328 7.172 10 8 10ZM18 19H6.561L13.566 13.155C13.812 12.946 14.258 12.947 14.499 13.154L19 16.994V18C19 18.552 18.552 19 18 19ZM6 5H18C18.552 5 19 5.448 19 6V14.364L15.797 11.632C14.807 10.79 13.258 10.79 12.277 11.626L5 17.698V6C5 5.448 5.448 5 6 5ZM18 3H6C4.346 3 3 4.346 3 6V18C3 19.654 4.346 21 6 21H18C19.654 21 21 19.654 21 18V6C21 4.346 19.654 3 18 3Z" fill="#000000"/>
</g>
</svg>
